images/portal/4142.svg

<?xml version="1.0" standalone="no"?><!DOCTYPE svg PUBLIC "-//W3C//DTD SVG 1.1//EN" "http://www.w3.org/Graphics/SVG/1.1/DTD/svg11.dtd"><svg xmlns:xlink="http://www.w3.org/1999/xlink" version="1.1" class="highcharts-root" style="font-family:Arial;font-size:12px;" xmlns="http://www.w3.org/2000/svg" viewBox="0 0 485 415"><desc>Created with Highstock 5.0.7</desc><defs><clipPath id="highcharts-8x9h8fc-1"><rect x="0" y="0" width="422" height="214" fill="none"></rect></clipPath><clipPath id="highcharts-8x9h8fc-2"><rect x="0" y="0" width="422" height="214" fill="none"></rect></clipPath></defs><rect fill="#fbfbfb" class="highcharts-background" x="0" y="0" width="485" height="415" rx="0" ry="0"></rect><rect fill="none" class="highcharts-plot-background" x="53" y="150" width="422" height="214"></rect><g class="highcharts-grid highcharts-xaxis-grid "><path fill="none" class="highcharts-grid-line" d="M 97.5 150 L 97.5 364" opacity="1"></path><path fill="none" class="highcharts-grid-line" d="M 180.5 150 L 180.5 364" opacity="1"></path><path fill="none" class="highcharts-grid-line" d="M 263.5 150 L 263.5 364" opacity="1"></path><path fill="none" class="highcharts-grid-line" d="M 346.5 150 L 346.5 364" opacity="1"></path><path fill="none" class="highcharts-grid-line" d="M 429.5 150 L 429.5 364" opacity="1"></path></g><g class="highcharts-grid highcharts-yaxis-grid "><path fill="none" stroke="#e6e6e6" stroke-width="1" class="highcharts-grid-line" d="M 53 364.5 L 475 364.5" opacity="1"></path><path fill="none" stroke="#e6e6e6" stroke-width="1" class="highcharts-grid-line" d="M 53 311.5 L 475 311.5" opacity="1"></path><path fill="none" stroke="#e6e6e6" stroke-width="1" class="highcharts-grid-line" d="M 53 257.5 L 475 257.5" opacity="1"></path><path fill="none" stroke="#e6e6e6" stroke-width="1" class="highcharts-grid-line" d="M 53 204.5 L 475 204.5" opacity="1"></path><path fill="none" stroke="#e6e6e6" stroke-width="1" class="highcharts-grid-line" d="M 53 149.5 L 475 149.5" opacity="1"></path></g><rect fill="none" class="highcharts-plot-border" x="53" y="150" width="422" height="214"></rect><g class="highcharts-axis highcharts-xaxis "><path fill="none" class="highcharts-tick" stroke="#FFFFFF" stroke-width="1" d="M 97.5 364 L 97.5 374" opacity="1"></path><path fill="none" class="highcharts-tick" stroke="#FFFFFF" stroke-width="1" d="M 180.5 364 L 180.5 374" opacity="1"></path><path fill="none" class="highcharts-tick" stroke="#FFFFFF" stroke-width="1" d="M 263.5 364 L 263.5 374" opacity="1"></path><path fill="none" class="highcharts-tick" stroke="#FFFFFF" stroke-width="1" d="M 346.5 364 L 346.5 374" opacity="1"></path><path fill="none" class="highcharts-tick" stroke="#FFFFFF" stroke-width="1" d="M 429.5 364 L 429.5 374" opacity="1"></path><path fill="none" class="highcharts-axis-line" stroke="#ccd6eb" stroke-width="1" d="M 53 364.5 L 475 364.5"></path></g><g class="highcharts-axis highcharts-yaxis "><path fill="none" class="highcharts-axis-line" d="M 53 150 L 53 364"></path></g><g class="highcharts-series-group"><g class="highcharts-series highcharts-series-0 highcharts-column-series highcharts-color-undefined highcharts-tracker" transform="translate(53,150) scale(1 1)" clip-path="url(#highcharts-8x9h8fc-2)"><rect x="24.5" y="-0.5" width="40" height="89" fill="#2f656b" class="highcharts-point" stroke="#ffffff" stroke-width="1"></rect><rect x="107.5" y="-0.5" width="40" height="87" fill="#2f656b" class="highcharts-point" stroke="#ffffff" stroke-width="1"></rect><rect x="190.5" y="-0.5" width="40" height="87" fill="#2f656b" class="highcharts-point" stroke="#ffffff" stroke-width="1"></rect><rect x="273.5" y="-0.5" width="40" height="85" fill="#2f656b" class="highcharts-point" stroke="#ffffff" stroke-width="1"></rect><rect x="356.5" y="-0.5" width="40" height="89" fill="#2f656b" class="highcharts-point" stroke="#ffffff" stroke-width="1"></rect></g><g class="highcharts-markers highcharts-series-0 highcharts-column-series highcharts-color-undefined " transform="translate(53,150) scale(1 1)" clip-path="none"></g><g class="highcharts-series highcharts-series-1 highcharts-column-series highcharts-color-undefined highcharts-tracker" transform="translate(53,150) scale(1 1)" clip-path="url(#highcharts-8x9h8fc-2)"><rect x="24.5" y="88.5" width="40" height="69" fill="#689199" class="highcharts-point" stroke="#ffffff" stroke-width="1"></rect><rect x="107.5" y="86.5" width="40" height="69" fill="#689199" class="highcharts-point" stroke="#ffffff" stroke-width="1"></rect><rect x="190.5" y="86.5" width="40" height="71" fill="#689199" class="highcharts-point" stroke="#ffffff" stroke-width="1"></rect><rect x="273.5" y="84.5" width="40" height="71" fill="#689199" class="highcharts-point" stroke="#ffffff" stroke-width="1"></rect><rect x="356.5" y="88.5" width="40" height="66" fill="#689199" class="highcharts-point" stroke="#ffffff" stroke-width="1"></rect></g><g class="highcharts-markers highcharts-series-1 highcharts-column-series highcharts-color-undefined " transform="translate(53,150) scale(1 1)" clip-path="none"></g><g class="highcharts-series highcharts-series-2 highcharts-column-series highcharts-color-undefined highcharts-tracker" transform="translate(53,150) scale(1 1)" clip-path="url(#highcharts-8x9h8fc-2)"><rect x="24.5" y="157.5" width="40" height="21" fill="#923f8d" class="highcharts-point" stroke="#ffffff" stroke-width="1"></rect><rect x="107.5" y="155.5" width="40" height="21" fill="#923f8d" class="highcharts-point" stroke="#ffffff" stroke-width="1"></rect><rect x="190.5" y="157.5" width="40" height="20" fill="#923f8d" class="highcharts-point" stroke="#ffffff" stroke-width="1"></rect><rect x="273.5" y="155.5" width="40" height="21" fill="#923f8d" class="highcharts-point" stroke="#ffffff" stroke-width="1"></rect><rect x="356.5" y="154.5" width="40" height="21" fill="#923f8d" class="highcharts-point" stroke="#ffffff" stroke-width="1"></rect></g><g class="highcharts-markers highcharts-series-2 highcharts-column-series highcharts-color-undefined " transform="translate(53,150) scale(1 1)" clip-path="none"></g><g class="highcharts-series highcharts-series-3 highcharts-column-series highcharts-color-undefined highcharts-tracker" transform="translate(53,150) scale(1 1)" clip-path="url(#highcharts-8x9h8fc-2)"><rect x="24.5" y="178.5" width="40" height="36" fill="#008ac3" class="highcharts-point" stroke="#ffffff" stroke-width="1"></rect><rect x="107.5" y="176.5" width="40" height="38" fill="#008ac3" class="highcharts-point" stroke="#ffffff" stroke-width="1"></rect><rect x="190.5" y="177.5" width="40" height="37" fill="#008ac3" class="highcharts-point" stroke="#ffffff" stroke-width="1"></rect><rect x="273.5" y="176.5" width="40" height="38" fill="#008ac3" class="highcharts-point" stroke="#ffffff" stroke-width="1"></rect><rect x="356.5" y="175.5" width="40" height="39" fill="#008ac3" class="highcharts-point" stroke="#ffffff" stroke-width="1"></rect></g><g class="highcharts-markers highcharts-series-3 highcharts-column-series highcharts-color-undefined " transform="translate(53,150) scale(1 1)" clip-path="none"></g></g><text x="10" text-anchor="start" class="highcharts-title" style="color:#000000;font-size:14px;font-weight:bold;fill:#000000;" y="21"><tspan>Familienhaushalte nach Art der Zusammensetzung</tspan></text><g class="highcharts-legend" transform="translate(10,50)"><rect fill="none" class="highcharts-legend-box" rx="0" ry="0" x="0" y="0" width="272" height="67" visibility="visible"></rect><g><g><g class="highcharts-legend-item highcharts-column-series highcharts-color-undefined highcharts-series-0" transform="translate(8,3)"><text x="21" style="color:#333333;font-size:12px;font-weight:normal;cursor:pointer;fill:#333333;" text-anchor="start" y="15"><tspan>verheiratete / registrierte Paare ohne Kinder</tspan></text><rect x="2" y="4" width="12" height="12" fill="#2f656b" class="highcharts-point"></rect></g><g class="highcharts-legend-item highcharts-column-series highcharts-color-undefined highcharts-series-1" transform="translate(8,17)"><text x="21" y="15" style="color:#333333;font-size:12px;font-weight:normal;cursor:pointer;fill:#333333;" text-anchor="start"><tspan>Paare mit minderjährigen Kindern</tspan></text><rect x="2" y="4" width="12" height="12" fill="#689199" class="highcharts-point"></rect></g><g class="highcharts-legend-item highcharts-column-series highcharts-color-undefined highcharts-series-2" transform="translate(8,31)"><text x="21" y="15" style="color:#333333;font-size:12px;font-weight:normal;cursor:pointer;fill:#333333;" text-anchor="start"><tspan>Einelternfamilien mit minderjährigen Kindern</tspan></text><rect x="2" y="4" width="12" height="12" fill="#923f8d" class="highcharts-point"></rect></g><g class="highcharts-legend-item highcharts-column-series highcharts-color-undefined highcharts-series-3" transform="translate(8,45)"><text x="21" y="15" style="color:#333333;font-size:12px;font-weight:normal;cursor:pointer;fill:#333333;" text-anchor="start"><tspan>Eltern(-teil) mit nur volljährigen Kindern</tspan></text><rect x="2" y="4" width="12" height="12" fill="#008ac3" class="highcharts-point"></rect></g></g></g></g><g class="highcharts-axis-labels highcharts-xaxis-labels "><text x="97.85826771653305" style="color:#000000;cursor:default;font-size:11px;fill:#000000;" text-anchor="middle" transform="translate(0,0)" y="383" opacity="1"><tspan>2011</tspan></text><text x="180.92913385826654" style="color:#000000;cursor:default;font-size:11px;fill:#000000;" text-anchor="middle" transform="translate(0,0)" y="383" opacity="1"><tspan>2012</tspan></text><text x="264" style="color:#000000;cursor:default;font-size:11px;fill:#000000;" text-anchor="middle" transform="translate(0,0)" y="383" opacity="1"><tspan>2013</tspan></text><text x="347.07086614173346" style="color:#000000;cursor:default;font-size:11px;fill:#000000;" text-anchor="middle" transform="translate(0,0)" y="383" opacity="1"><tspan>2014</tspan></text><text x="430.141732283467" style="color:#000000;cursor:default;font-size:11px;fill:#000000;" text-anchor="middle" transform="translate(0,0)" y="383" opacity="1"><tspan>2015</tspan></text></g><g class="highcharts-axis-labels highcharts-yaxis-labels "><text x="38" style="color:#000000;cursor:default;font-size:11px;fill:#000000;" text-anchor="end" transform="translate(0,0)" y="369" opacity="1"><tspan>0%</tspan></text><text x="38" style="color:#000000;cursor:default;font-size:11px;fill:#000000;" text-anchor="end" transform="translate(0,0)" y="315" opacity="1"><tspan>25%</tspan></text><text x="38" style="color:#000000;cursor:default;font-size:11px;fill:#000000;" text-anchor="end" transform="translate(0,0)" y="262" opacity="1"><tspan>50%</tspan></text><text x="38" style="color:#000000;cursor:default;font-size:11px;fill:#000000;" text-anchor="end" transform="translate(0,0)" y="208" opacity="1"><tspan>75%</tspan></text><text x="38" style="color:#000000;cursor:default;font-size:11px;fill:#000000;" text-anchor="end" transform="translate(0,0)" y="155" opacity="1"><tspan>100%</tspan></text></g><text x="10" class="highcharts-credits" text-anchor="start" style="cursor:default;color:#000000;font-size:10px;fill:#000000;" y="400"><tspan>Quelle: Statistisches Amt Basel-Stadt, kantonale Bevölkerungsstatistik</tspan></text></svg>

<svg class="highcharts-root" xmlns="http://www.w3.org/2000/svg" viewBox="0 0 485 415" font-family="Arial" font-size="12">
    <defs>
        <clipPath id="a">
            <path fill="none" d="M0 0h422v214H0z"/>
        </clipPath>
    </defs>
    <rect fill="#fbfbfb" class="highcharts-background" width="485" height="415" rx="0" ry="0"/>
    <path fill="none" class="highcharts-plot-background" d="M53 150h422v214H53z"/>
    <g class="highcharts-grid highcharts-xaxis-grid">
        <path fill="none" class="highcharts-grid-line" d="M97.5 150v214m83-214v214m83-214v214m83-214v214m83-214v214"/>
    </g>
    <g class="highcharts-grid highcharts-yaxis-grid">
        <path fill="none" stroke="#e6e6e6" class="highcharts-grid-line" d="M53 364.5h422m-422-53h422m-422-54h422m-422-53h422m-422-55h422"/>
    </g>
    <path fill="none" class="highcharts-plot-border" d="M53 150h422v214H53z"/>
    <g class="highcharts-axis highcharts-xaxis">
        <path fill="none" class="highcharts-tick" stroke="#FFF" d="M97.5 364v10m83-10v10m83-10v10m83-10v10m83-10v10"/>
        <path fill="none" class="highcharts-axis-line" stroke="#ccd6eb" d="M53 364.5h422"/>
    </g>
    <g class="highcharts-axis highcharts-yaxis">
        <path fill="none" class="highcharts-axis-line" d="M53 150v214"/>
    </g>
    <g class="highcharts-series-group">
        <g class="highcharts-series highcharts-series-0 highcharts-column-series highcharts-color-undefined highcharts-tracker" transform="translate(53 150)" clip-path="url(#a)">
            <path fill="#2f656b" class="highcharts-point" stroke="#fff" d="M24.5-.5h40v89h-40zm83 0h40v87h-40zm83 0h40v87h-40zm83 0h40v85h-40zm83 0h40v89h-40z"/>
        </g>
        <g class="highcharts-series highcharts-series-1 highcharts-column-series highcharts-color-undefined highcharts-tracker" transform="translate(53 150)" clip-path="url(#a)">
            <path fill="#689199" class="highcharts-point" stroke="#fff" d="M24.5 88.5h40v69h-40zm83-2h40v69h-40zm83 0h40v71h-40zm83-2h40v71h-40zm83 4h40v66h-40z"/>
        </g>
        <g class="highcharts-series highcharts-series-2 highcharts-column-series highcharts-color-undefined highcharts-tracker" transform="translate(53 150)" clip-path="url(#a)">
            <path fill="#923f8d" class="highcharts-point" stroke="#fff" d="M24.5 157.5h40v21h-40zm83-2h40v21h-40zm83 2h40v20h-40zm83-2h40v21h-40zm83-1h40v21h-40z"/>
        </g>
        <g class="highcharts-series highcharts-series-3 highcharts-column-series highcharts-color-undefined highcharts-tracker" transform="translate(53 150)" clip-path="url(#a)">
            <path fill="#008ac3" class="highcharts-point" stroke="#fff" d="M24.5 178.5h40v36h-40zm83-2h40v38h-40zm83 1h40v37h-40zm83-1h40v38h-40zm83-1h40v39h-40z"/>
        </g>
    </g>
    <text x="10" class="highcharts-title" y="21" color="#000" font-size="14" font-weight="700">
        <tspan>Familienhaushalte nach Art der Zusammensetzung</tspan>
    </text>
    <g class="highcharts-legend" transform="translate(10 50)">
        <rect fill="none" class="highcharts-legend-box" rx="0" ry="0" width="272" height="67"/>
        <g class="highcharts-legend-item highcharts-column-series highcharts-color-undefined highcharts-series-0">
            <text x="21" y="15" color="#333" font-weight="400" cursor="pointer" fill="#333" transform="translate(8 3)">
                <tspan>verheiratete / registrierte Paare ohne Kinder</tspan>
            </text>
            <path fill="#2f656b" class="highcharts-point" d="M10 7h12v12H10z"/>
        </g>
        <g class="highcharts-legend-item highcharts-column-series highcharts-color-undefined highcharts-series-1">
            <text x="21" y="15" color="#333" font-weight="400" cursor="pointer" fill="#333" transform="translate(8 17)">
                <tspan>Paare mit minderjährigen Kindern</tspan>
            </text>
            <path fill="#689199" class="highcharts-point" d="M10 21h12v12H10z"/>
        </g>
        <g class="highcharts-legend-item highcharts-column-series highcharts-color-undefined highcharts-series-2">
            <text x="21" y="15" color="#333" font-weight="400" cursor="pointer" fill="#333" transform="translate(8 31)">
                <tspan>Einelternfamilien mit minderjährigen Kindern</tspan>
            </text>
            <path fill="#923f8d" class="highcharts-point" d="M10 35h12v12H10z"/>
        </g>
        <g class="highcharts-legend-item highcharts-column-series highcharts-color-undefined highcharts-series-3">
            <text x="21" y="15" color="#333" font-weight="400" cursor="pointer" fill="#333" transform="translate(8 45)">
                <tspan>Eltern(-teil) mit nur volljährigen Kindern</tspan>
            </text>
            <path fill="#008ac3" class="highcharts-point" d="M10 49h12v12H10z"/>
        </g>
    </g>
    <g class="highcharts-axis-labels highcharts-xaxis-labels" text-anchor="middle" color="#000" cursor="default" font-size="11">
        <text x="97.858" y="383">
            <tspan>2011</tspan>
        </text>
        <text x="180.929" y="383">
            <tspan>2012</tspan>
        </text>
        <text x="264" y="383">
            <tspan>2013</tspan>
        </text>
        <text x="347.071" y="383">
            <tspan>2014</tspan>
        </text>
        <text x="430.142" y="383">
            <tspan>2015</tspan>
        </text>
    </g>
    <g class="highcharts-axis-labels highcharts-yaxis-labels" text-anchor="end" color="#000" cursor="default" font-size="11">
        <text x="38" y="369">
            <tspan>0%</tspan>
        </text>
        <text x="38" y="315">
            <tspan>25%</tspan>
        </text>
        <text x="38" y="262">
            <tspan>50%</tspan>
        </text>
        <text x="38" y="208">
            <tspan>75%</tspan>
        </text>
        <text x="38" y="155">
            <tspan>100%</tspan>
        </text>
    </g>
    <text x="10" class="highcharts-credits" y="400" cursor="default" color="#000" font-size="10">
        <tspan>Quelle: Statistisches Amt Basel-Stadt, kantonale Bevölkerungsstatistik</tspan>
    </text>
</svg>
